tools/download-figma-icons/icons/outlined-large/food-3.svg

<svg width="64" height="64" viewBox="0 0 64 64" fill="none" xmlns="http://www.w3.org/2000/svg">
<path fill-rule="evenodd" clip-rule="evenodd" d="M60.428 58.8359C60.457 58.2169 60.238 57.6359 59.81 57.1989L46.014 43.1309L46.641 42.1289C47.983 39.9849 47.481 37.2439 45.264 34.6079C42.083 30.8259 36.9381 28.2419 34.3511 30.4179C32.8941 31.6429 32.9521 33.7229 33.2581 35.2519C33.6941 37.4319 34.9461 39.9129 36.6081 41.8889C38.824 44.5249 41.439 45.4889 43.78 44.5349L44.874 44.0879L56.369 60.0929C56.726 60.5899 57.261 60.9049 57.875 60.9819C58.502 61.0619 59.137 60.8729 59.621 60.4669C60.104 60.0619 60.398 59.4669 60.428 58.8359ZM32.4191 28.1209C36.5691 24.639 43.373 27.6989 47.56 32.6769H47.561C49.929 35.4939 50.823 38.6009 50.162 41.3769C51.66 38.4899 52.455 35.2969 52.455 31.9999C52.455 20.721 43.28 11.544 32.0001 11.544C20.7211 11.544 11.5441 20.721 11.5441 31.9999C11.5441 43.2789 20.7211 52.4559 32.0001 52.4559C36.4621 52.4559 40.688 51.0349 44.248 48.3599L43.763 47.6839C40.508 48.4699 37.0511 47.0779 34.3111 43.8199C32.3101 41.4399 30.8541 38.5309 30.3161 35.8389C29.6601 32.5549 30.4071 29.8139 32.4191 28.1209ZM49.22 55.2819L45.997 50.7939C41.924 53.8379 37.0971 55.4559 32.0001 55.4559C19.0671 55.4559 8.54411 44.9339 8.54411 31.9999C8.54411 19.066 19.0671 8.54398 32.0001 8.54398C44.934 8.54398 55.455 19.066 55.455 31.9999C55.455 36.5229 54.156 40.8789 51.717 44.6619L55.677 48.6999C59.023 43.9759 61 38.2179 61 31.9999C61 16.009 47.99 2.99999 32.0001 2.99999C16.0091 2.99999 3.00012 16.009 3.00012 31.9999C3.00012 47.9899 16.0091 60.9999 32.0001 60.9999C38.451 60.9999 44.399 58.8579 49.22 55.2819ZM61.951 55.0989C62.956 56.1229 63.493 57.5369 63.424 58.9789C63.355 60.4409 62.672 61.8199 61.552 62.7629C60.599 63.5649 59.388 63.9999 58.154 63.9999C57.937 63.9999 57.72 63.9859 57.503 63.9589C56.071 63.7799 54.77 63.0089 53.932 61.8429L50.984 57.7369C45.668 61.6679 39.103 63.9999 32.0001 63.9999C14.3561 63.9999 0.00012207 49.6439 0.00012207 31.9999C0.00012207 14.357 14.3551 0 32.0001 0C49.644 0 64 14.357 64 31.9999C64 39.0569 61.7 45.5839 57.815 50.8799L61.951 55.0989ZM24.9471 40.8569C24.5761 41.5989 23.6761 41.8999 22.9361 41.5309C22.2981 41.2139 21.6881 40.8299 21.1241 40.3919C16.5241 36.8079 15.6981 30.1479 19.2821 25.5479C19.6841 25.031 20.1321 24.553 20.6151 24.125C21.1641 23.638 21.9711 23.628 22.5301 24.064C22.6021 24.119 22.6701 24.183 22.7331 24.253C23.2821 24.873 23.2241 25.8209 22.6041 26.3709C22.2591 26.6769 21.9381 27.0199 21.6481 27.3919C19.0801 30.6869 19.6731 35.4579 22.9681 38.0249C23.3731 38.3409 23.8121 38.6169 24.2711 38.8459C25.0121 39.2159 25.3161 40.1129 24.9471 40.8569Z" fill="black"/>
</svg>

<svg xmlns="http://www.w3.org/2000/svg" width="64" height="64" fill="none" viewBox="0 0 64 64"><path fill="currentColor" fill-rule="evenodd" d="M60.428 58.836c.029-.62-.19-1.2-.618-1.637L46.014 43.13l.627-1.002c1.342-2.144.84-4.885-1.377-7.521-3.181-3.782-8.326-6.366-10.913-4.19-1.457 1.225-1.399 3.305-1.093 4.834.436 2.18 1.688 4.66 3.35 6.637 2.216 2.636 4.831 3.6 7.172 2.646l1.094-.447 11.495 16.005c.357.497.892.812 1.506.889a2.28 2.28 0 0 0 1.746-.515c.483-.405.777-1 .807-1.631M32.419 28.12c4.15-3.482 10.954-.422 15.141 4.556h.001c2.368 2.817 3.262 5.924 2.601 8.7A20.3 20.3 0 0 0 52.455 32c0-11.279-9.175-20.456-20.455-20.456S11.544 20.721 11.544 32 20.721 52.456 32 52.456c4.462 0 8.688-1.421 12.248-4.096l-.485-.676c-3.255.786-6.712-.606-9.452-3.864-2-2.38-3.457-5.29-3.995-7.981-.656-3.284.091-6.025 2.103-7.718M49.22 55.28l-3.223-4.487c-4.073 3.044-8.9 4.662-13.997 4.662C19.067 55.456 8.544 44.934 8.544 32S19.067 8.544 32 8.544 55.455 19.066 55.455 32c0 4.523-1.299 8.879-3.738 12.662l3.96 4.038A28.8 28.8 0 0 0 61 32C61 16.009 47.99 3 32 3S3 16.009 3 32s13.01 29 29 29c6.451 0 12.399-2.142 17.22-5.718m12.731-.182a5.2 5.2 0 0 1 1.473 3.88 5.3 5.3 0 0 1-1.872 3.784 5.3 5.3 0 0 1-4.049 1.196 5.2 5.2 0 0 1-3.571-2.116l-2.948-4.106A31.83 31.83 0 0 1 32 64C14.356 64 0 49.644 0 32S14.355 0 32 0c17.644 0 32 14.357 32 32 0 7.057-2.3 13.584-6.185 18.88zM24.947 40.857a1.5 1.5 0 0 1-2.01.674 11 11 0 0 1-1.813-1.14c-4.6-3.583-5.426-10.243-1.842-14.843.402-.517.85-.995 1.333-1.423a1.499 1.499 0 1 1 1.99 2.246 7.7 7.7 0 0 0-.957 1.02c-2.568 3.296-1.975 8.067 1.32 10.634a7.7 7.7 0 0 0 1.303.82 1.5 1.5 0 0 1 .676 2.012" clip-rule="evenodd"/></svg>
